X:1
T:7 Lieder, Op. 48
T:Der Gang zum Liebchen
T:Johannes Brahms
T:Josef Wenzig
T:7 Lieder, Op. 48
T:1. Der Gang zum Liebchen
T:Creative Commons copyright waiver (CC0 1.0 Universal)
T:Creative Commons copyright waiver (CC0 1.0 Universal)
T:Creative Commons copyright waiver (CC0 1.0 Universal)
C:Johannes Brahms
Z:Josef Wenzig
Z:Creative Commons copyright waiver (CC0 1.0 Universal)
%%score 1 { 2 | 3 }
L:1/8
Q:1/4=116
M:3/4
K:G
V:1 treble nm="Singstimme\nVoice"
V:2 treble nm="Pianoforte"
V:3 bass 
V:1
"^Con  grazia" B,2 | E3 G B2 | c2 A2 e2 | d2 A2 c2 | B2 G2 B2 |!<(! (B3 ^c)!<)! c2 | ^c2 d2 A2 | %7
w: 1. Es|glänzt der Mond|nie- der, ich|soll- te doch|wie- der zu|mei- * nem|Lieb- chen, wie|
 B2 G2 F2 | E2 z2 z2 | z6 | z6 | z6 | z6 |[Q:1/4=132] z6 |[Q:1/4=132]"^animato" z2 z2 B2 | %15
w: mag es ihr|gehn?||||||Ach|
 B3 F B2 | B2 G2 B2 |!<(! d3 A d2 | d2 B2!<)! d2 | (^c3 A) G2 | G2 F2 =c2 | B3 A F2 | E2 z2 z2 | %23
w: weh, sie ver-|za- get und|kla- get, und|kla- get, daß|sie _ mich|nim- mer im|Le- ben wird|sehn!|
 z6 | z6 | z6 | z6 | z6 | z6 | z6[Q:1/4=124] | z2 z2 ||[Q:1/4=116]"^(Tempo I)" B,2 | E3 G B2 | %33
w: ||||||||2. Es|ging der Mond|
 c2 A2 e2 | d2 A2 c2 | B2 G2 B2 |!<(! B3 ^c c2!<)! | ^c2 d2 A2 | B2 G2 F2 | E2 z2 z2 | z6 | z6 | %42
w: un- ter, ich|eil- te doch|mun- ter, und|eil- te, daß|kei- ner mein|Lieb- chen ent-|führt.|||
 z6 | z6 |[Q:1/4=142] z6 |[Q:1/4=142]"^animato" z2 z2 B2 | B3 F B2 | B2 G2 B2 |!<(! d3 A d2 | %49
w: |||Ihr|Täub- chen, o|gir- ret, ihr|Lüft chen, o|
 d2 B2!<)! d2 | ^c3 A G2 | G2 F2 =c2 | B3 A F2 | E2 z4 | z6 | z6 | z6 | z6 | z6 | z6[Q:1/4=120] | %60
w: schwir- ret, dass|kei- ner mein|Lieb- chen, mein|Lieb- chen ent-|führt!|||||||
 z6[Q:1/4=116][Q:1/4=100] |[Q:1/4=80] z4 |] %62
w: ||
V:2
 z2 |!p! z2 z B,EG | z2 z CGc | z2 z CFA | z2 z B,GB | z2 z EG^c | z2 z!<(! Dd!<)!A | %7
!>(! z (BDG!>)![^DF]A,) | z2 z B,EG | B2 z EG^c- | c2 z FdA | (BDGB,[^DF]A,) | [G,E]2 z!p! (B,Bc | %13
"^anumato" BFB,F)(Bc | BGB,G)(Bc | BFB,F)(Bc | BGB,G)(Be | dADA)(de |!<(! dBDB) (d!<)!g | %19
 fe^cA)(GA | GDA,D) (F=c | BAFC B,[A,^D]) | [G,E]2 z (B,Bc | BFB,F)(Bc | BGB,G)(Be | dA!<(!DA)(de | %26
 dBDB)(d!<)!g | fe^cA)(EA | GFDA,)!>(! (F=c | BAFC B,!>)![A,^D]) | [G,E]2 z2 || z2 |!p! z2 z B,EG | %33
 z2 z CGc | z2 z CFA | z2 z B,GB | z2 z EG^c | z2 z!<(! Dd!<)!A |!>(! z (BDG!>)![^DF]A,) | %39
 z2 z B,EG | B2 z EG^c- | ^c2 z FdA | (BDGB,[^DF]A,) | [G,E]2 z!p! (B,Bc |"^anumato" BFB,F)(Bc | %45
 BGB,G)(Bc | BFB,F)(Bc | BGB,G)(Be | dADA)(de |!<(! dBDB) (d!<)!g | fe^cA)(GA | GDA,D) (F=c | %52
 BAFC B,[A,^D]) | [G,E]2 z (B,Bc | BFB,F)(Bc | BGB,G)(Be | dA!<(!DA)(de | dBDB)(d!<)!g | %58
 fe^cA)(EA | GFDA,)!>(! (F=c | BAFC B,!>)![A,^D]) | [G,E]2 z2 |] %62
V:3
 z2 |!ped! E,,B,,G, z z2!ped-up! | A,,E,A, z z2 | D,F,A, z z2 | G,,D,G, z z2 | E,,B,,G, z z2 | %6
 F,,D,A, z z2 | (G,,D,B,) z B,, z | E,,B,,G, z z2 | E,G,B, z z2 | F,,D,A, z z2 | %11
 (G,,D,G,) z B,, z | (E,,2 E,) z z2 | ^D,,2 [B,,A,]2 [B,,A,]2 | E,,2 [B,,G,]2 [B,,G,]2 | %15
 ^D,,2 [B,,A,]2 [B,,A,]2 | E,,2 [B,,G,]2 [B,,G,]2 | F,,2 [D,C]2 [D,C]2 | G,,2 [D,B,]2 [D,B,]2 | %19
 A,,2 [E,A,]2 ^C,,2 | D,,2 [A,,F,]2 D,,2 | ^D,,2 [B,,F,]2 B,,,2 | E,,2 [B,,G,]2 [B,,G,]2 | %23
 ^D,,2 [B,,A,]2 [B,,A,]2 | E,,2 [B,,G,]2 [B,,G,]2 | F,,2 [D,C]2 [D,C]2 | G,,2 [D,B,]2 [D,B,]2 | %27
 A,,2 [E,A,]2 ^C,,2 | D,,2 [A,,F,]2 D,,2 | ^D,,2 [B,,F,]2 B,,,2 | E,,2 [B,,G,]2 || z2 | %32
 E,,B,,G, z z2 | A,,E,A, z z2 | D,F,A, z z2 | G,,D,G, z z2 | E,,B,,G, z z2 | F,,D,A, z z2 | %38
 (G,,D,B,) z B,, z | E,,B,,G, z z2 | E,G,B, z z2 | F,,D,A, z z2 | (G,,D,G,) z B,, z | %43
 (E,,2 E,) z z2 | ^D,,2 [B,,A,]2 [B,,A,]2 | E,,2 [B,,G,]2 [B,,G,]2 | ^D,,2 [B,,A,]2 [B,,A,]2 | %47
 E,,2 [B,,G,]2 [B,,G,]2 | F,,2 [D,C]2 [D,C]2 | G,,2 [D,B,]2 [D,B,]2 | A,,2 [E,A,]2 ^C,,2 | %51
 D,,2 [A,,F,]2 D,,2 | ^D,,2 [B,,F,]2 B,,,2 | E,,2 [B,,G,]2 [B,,G,]2 | ^D,,2 [B,,A,]2 [B,,A,]2 | %55
 E,,2 [B,,G,]2 [B,,G,]2 | F,,2 [D,C]2 [D,C]2 | G,,2 [D,B,]2 [D,B,]2 | A,,2 [E,A,]2 ^C,,2 | %59
 D,,2 [A,,F,]2 D,,2 | ^D,,2 [B,,F,]2 B,,,2 | E,,2 [B,,G,]2 |] %62

